svg/Outline/plus.svg

<svg viewBox="0 0 24 24" xmlns="http://www.w3.org/2000/svg" width="24" height="24"><path d="M12 5.1C12.5 5.1 12.9 5.5 12.9 6L12.9 11.1L18.11 11.1A.9 .9 0 0 1 18.11 12.9L12.91 12.9L12.9 18.12A.9 .9 0 0 1 11.1 18.12L11.1 12.9L6 12.9A.9 .9 0 0 1 6 11.1L11.11 11.1L11.11 6C11.11 5.5 11.51 5.1 12.01 5.1"/></svg>

<svg viewBox="0 0 24 24" xmlns="http://www.w3.org/2000/svg" width="24" height="24"><path d="M12 5.1c.5 0 .9.4.9.9v5.1h5.21a.9.9 0 0 1 0 1.8h-5.2v5.12l-.01.1a.9.9 0 0 1-1.8 0V12.9H6a.9.9 0 0 1 0-1.8h5.11V6c0-.5.4-.9.9-.9"/></svg>
